X: 14682
T: Gan Ainm
R: jig
M: 6/8
K: Dmajor
E|FAE D2B,|A,B,D A,B,D|FAE D2E|FAA ABd|
FAE D2B,|A,B,D A,B,D|EFA BAF|EFA D2E|
FAE D2B,|A,B,D A,B,D|FAE D2E|FAA ABd|
ddd BAF|EFD EDB,|EFA BAF|EFA D2E||
|:A|AdA dAe|AdA fAe|AdA fAe|fga e2e|
faa baf|baf edB|dBA FAF|AFE D3:|
|:A|def a2f|abf e2d|ABA ABd|ABd e2d|
def a2f|abf e2d|ABd FAF|EDD D3:|

